X:167occ
T:William Ward
C:Turlough O'Carolan (1670-1738)
C:ALLEGHRETTO
B:Complete Works Of Turlough O'Carolan (PB - no pub - no date - fleamarket find)
Z:by Chris Gilb; checks and conversions by Vince Brennan (www.sosyourmom.com)
N:Transposed from "F"
I:abc2nwc
M:6/8
L:1/8
K:G
EAA ABA|BGd d2d|e/2f/2ge f/2g/2af|dBA/2G/2 G3|
dBd/2e/2 dBd|e/2f/2gg afa|gfe dBA|GEA A3:|
|:EAA AB/2A/2B|GBg GBg|e2e eBe|dBA/2G/2 d3|
Bd/2B/2A GEE|G/2A/2GE DEA|A2A BGd|e3e3|
ge/2f/2g ge/2f/2g|dBA GAB|af/2g/2a af/2g/2a|gfe def|
gab gab|afd e/2f/2ge|dBe dBA|GEA A3:|

